X:40
T:Jodlerfäscht-Juiz 2001  Bb
T:Sepp Herger  (* 16.1.1962)
T:Dirigenten-Notiz  Edi Gasser
C:Unterwalden (CH)
%%partsbox
%P:AB
R:Naturjodel
L:1/4
K:Bb
M:4/4
[P:A] "fröhlich, doch nicht zu schnell"  D/F/ | B>cdc | B2Df/e/ | d>cBe | d3D/F/ | Ecc>d | 
c3f/e/ | d>edc | !fermata!B3 D/F/ | B>cdc | B2Df/e/ | 
dcBe | d3D/F/ | Ecf>e | d2BB | cFdc | B2z || 
M:3/4
[P:B] "flottes Walzertempo" d>ed | B2D | d>ed | c3 | c>dc | A2F | Edc/A/ | B>cd | 
d>ed | B2D | d>ed | c3 | c>dc | A2F | Edc | B3 ||  
[P:C] "langsam" B/B/ | e>dc | e>d c/e/ | d2c | B2D/F/ | E2c | d>Ac | B>Bc | 
d2B/B/ | e>dc | e>d c/e/ | d2c | B2D/F/ | E2c | d>dc | (B3 | B)z ||
[P:D] "flottes Walzertempo" d>ed | B2D | d>ed | c3 | c>dc | A2F | Edc/A/ | B>cd | d>ed | B2D | d>ed | 
c3 | c>dc | A2F | Edc | B3 | d>ed | B2D | d>ed | c3 | c>dc | A2F | 
Ed c/A/ | B>cd | d>ed | B2D | d>ed | c3 | e>"_jeder Ton breit"fe | dBd | f>e d/c/ | B3 |] 
W:
W:Reihenfolge: A-B-C-D
W:
W:notiert Edi Gasser
W:UJV-Naturjodelsammlung: Code-Nr: 22-19
W:http://www.naturjodler.ch/code 22.htm  (with AUDIO)
%May 23, 2018

